static/logos/ibm-glyph-black.svg

<svg width="100" height="40" viewBox="0 0 100 40" fill="none" xmlns="http://www.w3.org/2000/svg">
<path d="M1.03125 0.412598V3.0926H20.0938V0.412598H1.03125ZM22.7963 0.412598V3.0926H49.9638C49.9638 3.0926 47.1888 0.412598 43.5138 0.412598H22.7963ZM55.2925 0.412598V3.0926H71.7263L70.7513 0.412598H55.2925ZM83.5113 0.412598L82.5363 3.0926H98.8238V0.412598H83.5113ZM1.03125 5.6251V8.3051H20.0938V5.6251H1.03125ZM22.7963 5.62885V8.30385H53.1138C53.1138 8.30385 52.76 6.24135 52.1425 5.62885H22.7963ZM55.2925 5.62885V8.30385H73.5425L72.64 5.62885H55.2925ZM81.56 5.62885L80.6575 8.30385H98.8225V5.62885H81.56ZM6.51001 10.8376V13.5214H14.7663V10.8376H6.51001ZM28.275 10.8376V13.5214H36.5313V10.8376H28.275ZM44.5625 10.8376V13.5214H52.8188C52.8188 13.5214 53.3438 12.1039 53.3438 10.8376H44.5625ZM60.7725 10.8376V13.5214H75.3975L74.4225 10.8376H60.7725ZM79.7638 10.8376L78.7838 13.5214H93.4938V10.8376H79.7638ZM6.51126 16.0539V18.7339H14.7675V16.0539H6.51126ZM28.2763 16.0539V18.7339H49.3638C49.3638 18.7339 51.1263 17.3589 51.6888 16.0539H28.2763ZM60.7725 16.0539V18.7339H69.0288V17.2414L69.5538 18.7339H84.6788L85.2413 17.2414V18.7339H93.4975V16.0539H77.9975L77.175 18.3239L76.35 16.0539H60.7725ZM6.51001 21.2664V23.9464H14.7663V21.2664H6.51001ZM28.275 21.2664V23.9464H51.6875C51.125 22.6464 49.3625 21.2664 49.3625 21.2664H28.275ZM60.7713 21.2664V23.9464H69.0275V21.2664H60.7713ZM70.5275 21.2664L71.5275 23.9464H82.8675L83.8175 21.2664H70.5275ZM85.2375 21.2664V23.9464H93.4938V21.2664H85.2375ZM6.51249 26.4789V29.1589H14.7688V26.4789H6.51249ZM28.2775 26.4789V29.1589H36.5338V26.4789H28.2775ZM44.565 26.4789V29.1589H53.345C53.345 27.8939 52.82 26.4789 52.82 26.4789H44.565ZM60.775 26.4789V29.1589H69.0313V26.4789H60.775ZM72.405 26.4789L73.3725 29.1589H80.9725L81.9475 26.4789H72.405ZM85.24 26.4789V29.1589H93.4963V26.4789H85.24ZM1.18375 31.6914V34.3751H20.2463V31.6914H1.18375ZM22.8 31.6914V34.3751H52.1475C52.765 33.7601 53.1188 31.6914 53.1188 31.6914H22.8ZM55.445 31.6914V34.3751H69.0263V31.6914H55.445ZM74.2825 31.6914L75.2775 34.3751H79.145L80.0788 31.6914H74.2825ZM85.24 31.6914V34.3751H98.975V31.6914H85.24ZM1.18375 36.9076V39.5876H20.2463V36.9076H1.18375ZM22.8 36.9076V39.5826H43.5138C47.1888 39.5826 49.9638 36.9076 49.9638 36.9076H22.8ZM55.445 36.9076V39.5876H69.0263V36.9076H55.445ZM76.17 36.9076L77.1263 39.5801L77.2913 39.5839L78.2625 36.9089L76.17 36.9076ZM85.2413 36.9076V39.5876H98.9763V36.9076H85.2413Z" fill="black"/>
</svg>

<svg xmlns="http://www.w3.org/2000/svg" width="160" height="64" fill="none" viewBox="0 0 100 40"><path fill="#000" d="M1.031.413v2.68h19.063V.413H1.03Zm21.765 0v2.68h27.168s-2.775-2.68-6.45-2.68H22.796Zm32.496 0v2.68h16.434l-.975-2.68H55.292Zm28.22 0-.976 2.68h16.288V.413H83.51ZM1.031 5.625v2.68h19.062v-2.68H1.03Zm21.764.004v2.675h30.318s-.354-2.063-.971-2.675H22.795Zm32.496 0v2.675h18.25l-.902-2.675H55.292Zm26.268 0-.903 2.675h18.166V5.629H81.56ZM6.51 10.838v2.683h8.256v-2.683H6.51Zm21.765 0v2.683h8.256v-2.683h-8.256Zm16.288 0v2.683h8.256s.525-1.417.525-2.683h-8.782Zm16.21 0v2.683h14.624l-.975-2.683h-13.65Zm18.99 0-.98 2.683h14.71v-2.683h-13.73ZM6.512 16.054v2.68h8.256v-2.68H6.511Zm21.765 0v2.68h21.088s1.762-1.375 2.325-2.68H28.276Zm32.496 0v2.68h8.257V17.24l.525 1.493h15.125l.562-1.493v1.493h8.257v-2.68h-15.5l-.823 2.27-.825-2.27H60.773ZM6.51 21.266v2.68h8.256v-2.68H6.51Zm21.765 0v2.68h23.413c-.563-1.3-2.326-2.68-2.326-2.68H28.275Zm32.496 0v2.68h8.257v-2.68H60.77Zm9.757 0 1 2.68h11.34l.95-2.68h-13.29Zm14.71 0v2.68h8.256v-2.68h-8.257ZM6.511 26.48v2.68h8.257v-2.68H6.512Zm21.765 0v2.68h8.257v-2.68h-8.256Zm16.288 0v2.68h8.78c0-1.265-.525-2.68-.525-2.68h-8.255Zm16.21 0v2.68h8.256v-2.68h-8.256Zm11.63 0 .968 2.68h7.6l.975-2.68h-9.543Zm12.835 0v2.68h8.256v-2.68H85.24ZM1.184 31.69v2.684h19.062v-2.684H1.184Zm21.616 0v2.684h29.348c.617-.615.97-2.684.97-2.684H22.8Zm32.645 0v2.684h13.581v-2.684H55.445Zm18.837 0 .996 2.684h3.867l.934-2.684h-5.796Zm10.958 0v2.684h13.735v-2.684H85.24ZM1.184 36.908v2.68h19.062v-2.68H1.184Zm21.616 0v2.675h20.714c3.675 0 6.45-2.675 6.45-2.675H22.8Zm32.645 0v2.68h13.581v-2.68H55.445Zm20.725 0 .956 2.672.165.004.972-2.675-2.093-.001Zm9.071 0v2.68h13.735v-2.68H85.241Z"/></svg>
